img/tabs_tooth.svg

<svg width="33" height="33" viewBox="0 0 33 33" fill="none" xmlns="http://www.w3.org/2000/svg">
<path d="M20.8633 6.95386C19.6182 6.95386 18.3056 7.67786 17.346 8.20723C17.1172 8.33344 16.6592 8.63941 16.5002 8.63933C16.3423 8.63933 15.8861 8.33423 15.6574 8.20786C14.701 7.67864 13.3912 6.95386 12.1371 6.95386C10.5527 6.95386 9.09813 7.60535 8.04158 8.78843C7.04015 9.90961 6.48853 11.3842 6.48853 12.9409C6.48853 15.1182 7.26718 18.2076 8.57151 21.2048C9.15262 22.54 9.77204 23.6948 10.3629 24.5452C11.0991 25.6045 11.7509 26.1195 12.3557 26.1195C12.6462 26.1195 13.1763 26.0015 13.4615 25.2118C13.6991 24.5548 13.9119 23.8041 14.1382 23.0054C14.6523 21.1908 15.4294 18.4483 16.4626 18.4483H16.5378C16.9789 18.4483 17.3914 18.8631 17.7988 19.7163C18.2321 20.6237 18.565 21.8437 18.8872 23.0238C19.103 23.8142 19.3068 24.5609 19.5377 25.209C19.8179 25.9954 20.3434 26.113 20.632 26.1132C21.2347 26.1132 21.8862 25.5906 22.6237 24.5155C23.2132 23.6562 23.8337 22.4901 24.4182 21.1432C25.729 18.1228 26.5115 15.0566 26.5115 12.9411C26.5115 11.3843 25.96 9.90961 24.9586 8.78858C23.9022 7.60535 22.4478 6.95386 20.8633 6.95386ZM23.3021 20.6586C22.7557 21.9175 22.1585 23.0426 21.6205 23.8269C21.1416 24.5249 21.0103 24.599 20.7616 24.8218C20.729 24.8509 20.6978 24.8381 20.6842 24.8005C20.4681 24.197 20.2709 23.4713 20.061 22.7023C19.725 21.4712 19.3775 20.1981 18.8971 19.1919C18.267 17.8727 17.4953 17.2312 16.5378 17.2312H16.4626C15.5371 17.2312 14.782 17.8675 14.1539 19.1766C13.6756 20.1736 13.3148 21.4469 12.965 22.6814C12.7464 23.453 12.54 24.1815 12.3173 24.7974C12.3075 24.8245 12.2918 24.8838 12.2303 24.8656C12.0796 24.8212 11.8495 24.5513 11.3622 23.8502C10.8239 23.0757 10.2291 21.9637 9.68735 20.719C8.46488 17.9097 7.70549 14.9292 7.70549 12.9407C7.70549 10.5959 9.36305 8.17051 12.137 8.17051C12.8538 8.17051 13.8042 8.50227 14.679 9.05807C14.8049 9.13812 14.9886 9.27927 15.1661 9.41586C15.2386 9.47169 15.3101 9.5265 15.3769 9.57683C15.5942 9.73953 15.8877 9.95223 16.2331 10.1554C16.416 10.2636 16.5825 10.3595 16.7704 10.4391C17.5229 10.7586 18.3208 10.9206 19.142 10.9206C19.9875 10.9206 21.7294 10.5623 21.7294 10.3675C21.7294 10.2347 19.6736 10.4837 18.1849 9.91276C17.9488 9.82225 17.4672 9.66474 17.4672 9.60294C17.4672 9.55866 17.5108 9.51856 17.554 9.49261C17.6602 9.42907 17.7804 9.3572 17.9353 9.27172C18.7775 8.80699 19.9311 8.17051 20.8631 8.17051C23.637 8.17051 25.2946 10.5959 25.2946 12.9407C25.2948 14.8686 24.5312 17.8259 23.3021 20.6586Z" fill="url(#paint0_linear)"/>
<path d="M31.0776 7.753C31.0372 6.79742 30.3475 5.78452 29.473 5.39716L17.8936 0.266182C17.5062 0.09452 17.0068 0 16.4875 0C15.9682 0 15.4689 0.09452 15.0815 0.266182L3.50201 5.39716C2.62561 5.78546 1.93905 6.80065 1.90515 7.75859C1.88793 8.24141 1.51056 19.6264 3.64198 23.3563C5.76514 27.0717 14.6846 32.4116 15.0633 32.637C15.4562 32.8712 15.9638 32.9999 16.4925 32.9999C17.017 32.9999 17.5209 32.8729 17.9114 32.6422C18.2936 32.4166 27.2946 27.0728 29.4186 23.356C31.5513 19.6239 31.0981 8.23606 31.0776 7.753ZM28.0532 22.576C26.135 25.9326 17.2018 31.2351 17.1119 31.2883C16.9643 31.3753 16.7329 31.4275 16.4926 31.4275C16.2503 31.4275 16.0166 31.3747 15.868 31.2861C15.7789 31.2329 6.92643 25.934 5.00749 22.576C3.42203 19.8013 3.36502 10.9793 3.47684 7.81426C3.48935 7.46252 3.81734 6.9775 4.13911 6.83493L15.7187 1.70403C15.9042 1.62178 16.1918 1.57271 16.4875 1.57271C16.7835 1.57271 17.0708 1.62178 17.2563 1.70403L28.8359 6.83493C29.1593 6.97828 29.4914 7.46575 29.5063 7.81921C29.6396 10.9832 29.6383 19.8018 28.0532 22.576Z" fill="url(#paint1_linear)"/>
<defs>
<linearGradient id="paint0_linear" x1="16.5" y1="6.95386" x2="16.5" y2="26.1195" gradientUnits="userSpaceOnUse">
<stop stop-color="#50CCF8"/>
<stop offset="1" stop-color="#19B4EA"/>
</linearGradient>
<linearGradient id="paint1_linear" x1="16.5002" y1="0" x2="16.5002" y2="32.9999" gradientUnits="userSpaceOnUse">
<stop stop-color="#50CCF8"/>
<stop offset="1" stop-color="#19B4EA"/>
</linearGradient>
</defs>
</svg>

<svg width="33" height="33" fill="none" xmlns="http://www.w3.org/2000/svg"><path d="M20.863 6.954c-1.245 0-2.557.724-3.517 1.253-.229.126-.687.432-.846.432-.158 0-.614-.305-.843-.431-.956-.53-2.266-1.254-3.52-1.254a5.425 5.425 0 0 0-4.095 1.834C7.04 9.91 6.489 11.384 6.489 12.941c0 2.177.778 5.267 2.083 8.264.58 1.335 1.2 2.49 1.79 3.34.737 1.06 1.389 1.574 1.994 1.574.29 0 .82-.117 1.105-.907.238-.657.45-1.408.677-2.207.514-1.814 1.291-4.557 2.325-4.557h.075c.44 0 .853.415 1.26 1.268.434.908.767 2.128 1.09 3.308.215.79.419 1.537.65 2.185.28.786.805.904 1.094.904.603 0 1.254-.522 1.992-1.598.59-.859 1.21-2.025 1.794-3.372 1.311-3.02 2.094-6.086 2.094-8.202 0-1.557-.552-3.031-1.553-4.152a5.423 5.423 0 0 0-4.096-1.835zm2.44 13.705c-.547 1.259-1.145 2.384-1.683 3.168-.478.698-.61.772-.858.995-.033.029-.064.016-.078-.021-.216-.604-.413-1.33-.623-2.099-.336-1.23-.683-2.504-1.164-3.51-.63-1.32-1.402-1.96-2.36-1.96h-.074c-.926 0-1.681.636-2.31 1.945-.477.997-.838 2.27-1.188 3.504-.219.772-.425 1.5-.648 2.116-.01.027-.025.087-.087.069-.15-.045-.38-.315-.868-1.016-.538-.774-1.133-1.886-1.675-3.131-1.222-2.81-1.982-5.79-1.982-7.778 0-2.345 1.658-4.77 4.432-4.77.717 0 1.667.331 2.542.887.126.08.31.221.487.358l.21.16c.218.164.512.376.857.58.183.108.35.204.537.283.753.32 1.55.482 2.372.482.846 0 2.587-.359 2.587-.553 0-.133-2.055.116-3.544-.455-.236-.09-.718-.248-.718-.31 0-.044.044-.084.087-.11.106-.064.226-.136.381-.221.843-.465 1.996-1.101 2.928-1.101 2.774 0 4.432 2.425 4.432 4.77 0 1.928-.764 4.885-1.993 7.718z" fill="url(#paint0_linear)"/><path d="M31.078 7.753c-.04-.956-.73-1.968-1.605-2.356L17.893.267C17.507.094 17.008 0 16.489 0c-.52 0-1.02.095-1.406.266L3.502 5.397c-.876.388-1.563 1.404-1.597 2.362-.017.482-.394 11.867 1.737 15.597 2.123 3.716 11.043 9.056 11.421 9.281.393.234.9.363 1.43.363.524 0 1.028-.127 1.418-.358.383-.225 9.384-5.57 11.508-9.286 2.132-3.732 1.68-15.12 1.659-15.603zm-3.025 14.823c-1.918 3.357-10.851 8.66-10.941 8.712-.148.087-.38.14-.62.14-.242 0-.475-.053-.624-.142-.09-.053-8.942-5.352-10.86-8.71-1.586-2.775-1.643-11.597-1.531-14.762.012-.351.34-.837.662-.98l11.58-5.13c.185-.082.473-.131.769-.131.296 0 .583.049.768.131l11.58 5.13c.323.144.655.632.67.985.134 3.164.132 11.983-1.453 14.757z" fill="url(#paint1_linear)"/><defs><linearGradient id="paint0_linear" x1="16.5" y1="6.954" x2="16.5" y2="26.119" gradientUnits="userSpaceOnUse"><stop stop-color="#50CCF8"/><stop offset="1" stop-color="#19B4EA"/></linearGradient><linearGradient id="paint1_linear" x1="16.5" y1="0" x2="16.5" y2="33" gradientUnits="userSpaceOnUse"><stop stop-color="#50CCF8"/><stop offset="1" stop-color="#19B4EA"/></linearGradient></defs></svg>
